X:95
T: Bauernkalender
N: A0452
O: Europa, Mitteleuropa, Deutschland
N: Forster II 1540 No. 51.
R: Romanze, Ballade, Lied
M: 4/2
L: 1/2
K: G
G | GG_BB | AFG
A | _BBAA | G2z
G | GG_BB | AFG
A | _BBAA | G2z
_B | AAA_B | Ad2
d | dc_BB | A2z
A | _BcAd | d2_B
d | ddcc | d2dG | c_BAA | G3

